public/backgrounds/logo.svg

<svg width="160" height="49" viewBox="0 0 160 49" fill="none" xmlns="http://www.w3.org/2000/svg">
<path d="M24 48.5C10.7467 48.5 0 37.7533 0 24.5H24V48.5Z" fill="#703BF7"/>
<path d="M0 0.5C13.2533 0.5 24 11.2467 24 24.5H0V0.5Z" fill="#703BF7"/>
<path d="M24 48.5C37.2533 48.5 48 37.7533 48 24.5H24V48.5Z" fill="#703BF7"/>
<path d="M48 24.5C48 11.2467 37.2533 0.5 24 0.5V24.5H48Z" fill="#703BF7"/>
<path d="M156.82 35.3603V27.3536C156.82 26.4286 156.522 25.6675 155.924 25.0701C155.346 24.4727 154.595 24.174 153.67 24.174C153.053 24.174 152.504 24.3089 152.022 24.5787C151.54 24.8485 151.165 25.2242 150.895 25.706C150.625 26.1877 150.49 26.737 150.49 27.3536L149.247 26.6599C149.247 25.6 149.478 24.6654 149.941 23.8561C150.403 23.0274 151.039 22.3819 151.849 21.9194C152.677 21.4377 153.602 21.1968 154.624 21.1968C155.664 21.1968 156.589 21.4666 157.398 22.0061C158.208 22.5264 158.844 23.2105 159.306 24.0584C159.769 24.887 160 25.7542 160 26.6599V35.3603H156.82ZM147.311 35.3603V21.4858H150.49V35.3603H147.311Z" fill="white"/>
<path d="M140.565 35.3604V21.4859H143.745V35.3604H140.565ZM142.155 18.9422C141.615 18.9422 141.162 18.7591 140.796 18.393C140.449 18.0269 140.276 17.574 140.276 17.0345C140.276 16.4949 140.449 16.042 140.796 15.6759C141.162 15.3098 141.615 15.1267 142.155 15.1267C142.714 15.1267 143.166 15.3098 143.513 15.6759C143.86 16.042 144.034 16.4949 144.034 17.0345C144.034 17.574 143.86 18.0269 143.513 18.393C143.166 18.7591 142.714 18.9422 142.155 18.9422Z" fill="white"/>
<path d="M131.541 35.6494C130.154 35.6494 128.901 35.3411 127.783 34.7244C126.685 34.0885 125.808 33.2214 125.153 32.123C124.517 31.0246 124.199 29.7913 124.199 28.4231C124.199 27.0549 124.517 25.8313 125.153 24.7521C125.789 23.6537 126.647 22.7866 127.726 22.1506C128.824 21.5147 130.038 21.1968 131.368 21.1968C132.659 21.1968 133.796 21.4955 134.779 22.0928C135.781 22.6902 136.561 23.5092 137.12 24.5498C137.698 25.5904 137.987 26.7755 137.987 28.1051C137.987 28.3364 137.968 28.5773 137.929 28.8278C137.91 29.059 137.871 29.3192 137.814 29.6082H126.425V27.0067H136.166L134.981 28.0473C134.942 27.1994 134.779 26.4864 134.489 25.9083C134.2 25.3302 133.786 24.887 133.247 24.5787C132.726 24.2704 132.081 24.1162 131.31 24.1162C130.501 24.1162 129.797 24.2896 129.2 24.6365C128.602 24.9834 128.14 25.4748 127.812 26.1107C127.485 26.7273 127.321 27.4692 127.321 28.3364C127.321 29.2035 127.494 29.9647 127.841 30.6199C128.188 31.2751 128.68 31.7857 129.315 32.1519C129.951 32.4987 130.684 32.6722 131.512 32.6722C132.225 32.6722 132.88 32.5469 133.478 32.2964C134.094 32.0459 134.615 31.6797 135.039 31.198L137.062 33.2503C136.388 34.0403 135.569 34.6377 134.605 35.0424C133.642 35.4471 132.62 35.6494 131.541 35.6494Z" fill="white"/>
<path d="M116.677 35.3604V15.7048H119.856V35.3604H116.677ZM113.353 24.3764V21.4859H123.18V24.3764H113.353Z" fill="white"/>
<path d="M103.609 35.6494C102.357 35.6494 101.22 35.3314 100.198 34.6955C99.1964 34.0596 98.3967 33.2021 97.7993 32.123C97.2212 31.0246 96.9321 29.8009 96.9321 28.452C96.9321 27.0838 97.2212 25.8602 97.7993 24.781C98.3967 23.6826 99.1964 22.8155 100.198 22.1796C101.22 21.5244 102.357 21.1968 103.609 21.1968C104.669 21.1968 105.604 21.428 106.413 21.8905C107.242 22.3337 107.897 22.9504 108.379 23.7404C108.86 24.5305 109.101 25.4266 109.101 26.4286V30.4176C109.101 31.4196 108.86 32.3157 108.379 33.1057C107.916 33.8958 107.271 34.5221 106.442 34.9846C105.613 35.4278 104.669 35.6494 103.609 35.6494ZM104.13 32.6433C105.305 32.6433 106.249 32.2482 106.962 31.4581C107.695 30.6681 108.061 29.6564 108.061 28.4231C108.061 27.5945 107.897 26.8622 107.569 26.2263C107.242 25.5904 106.779 25.099 106.182 24.7521C105.604 24.386 104.92 24.2029 104.13 24.2029C103.359 24.2029 102.675 24.386 102.077 24.7521C101.499 25.099 101.037 25.5904 100.69 26.2263C100.362 26.8622 100.198 27.5945 100.198 28.4231C100.198 29.2517 100.362 29.984 100.69 30.6199C101.037 31.2558 101.499 31.7568 102.077 32.123C102.675 32.4698 103.359 32.6433 104.13 32.6433ZM107.858 35.3603V31.6316L108.408 28.2497L107.858 24.8966V21.4858H111.038V35.3603H107.858Z" fill="white"/>
<path d="M89.3798 35.3604V15.7048H92.5593V35.3604H89.3798ZM86.0557 24.3764V21.4859H95.8834V24.3764H86.0557Z" fill="white"/>
<path d="M79.3879 35.6494C78.6171 35.6494 77.8752 35.5531 77.1622 35.3603C76.4492 35.1484 75.794 34.8593 75.1966 34.4932C74.5992 34.1078 74.079 33.6453 73.6357 33.1057L75.6591 31.0824C76.1409 31.6412 76.6901 32.0652 77.3067 32.3542C77.9426 32.624 78.6556 32.7589 79.4457 32.7589C80.1587 32.7589 80.6983 32.6529 81.0644 32.4409C81.4305 32.2289 81.6136 31.9206 81.6136 31.516C81.6136 31.092 81.4402 30.7644 81.0933 30.5332C80.7464 30.3019 80.2936 30.1092 79.7347 29.9551C79.1952 29.7816 78.6171 29.6082 78.0004 29.4348C77.4031 29.2613 76.825 29.0301 76.2661 28.741C75.7266 28.4327 75.2833 28.0184 74.9365 27.4981C74.5896 26.9778 74.4162 26.3034 74.4162 25.4748C74.4162 24.5883 74.6185 23.8272 75.0232 23.1912C75.4471 22.5553 76.0349 22.0639 76.7864 21.7171C77.5572 21.3702 78.4726 21.1968 79.5324 21.1968C80.6501 21.1968 81.6329 21.3991 82.4807 21.8038C83.3479 22.1892 84.0705 22.7769 84.6486 23.567L82.6253 25.5904C82.2206 25.0893 81.7581 24.7136 81.2378 24.4631C80.7175 24.2126 80.1202 24.0873 79.4457 24.0873C78.8098 24.0873 78.3184 24.1837 77.9715 24.3764C77.6247 24.5691 77.4512 24.8485 77.4512 25.2146C77.4512 25.6 77.6247 25.8987 77.9715 26.1107C78.3184 26.3226 78.7616 26.5057 79.3012 26.6599C79.86 26.814 80.4381 26.9875 81.0355 27.1802C81.6521 27.3536 82.2302 27.6041 82.7698 27.9317C83.3286 28.24 83.7815 28.664 84.1283 29.2035C84.4752 29.7238 84.6486 30.4079 84.6486 31.2558C84.6486 32.6047 84.1765 33.6742 83.2323 34.4643C82.288 35.2544 81.0066 35.6494 79.3879 35.6494Z" fill="white"/>
<path d="M58.2339 35.3604V15.1267H61.558V35.3604H58.2339ZM60.5174 35.3604V32.3253H71.8483V35.3604H60.5174ZM60.5174 26.4865V23.567H70.8655V26.4865H60.5174ZM60.5174 18.1618V15.1267H71.7037V18.1618H60.5174Z" fill="white"/>
</svg>

<svg xmlns="http://www.w3.org/2000/svg" width="160" height="49" fill="none"><path fill="#703BF7" d="M24 48.5c-13.253 0-24-10.747-24-24h24zM0 .5c13.253 0 24 10.747 24 24H0zM24 48.5c13.253 0 24-10.747 24-24H24zM48 24.5c0-13.253-10.747-24-24-24v24z"/><path fill="#fff" d="M156.82 35.36v-8.006q0-1.387-.896-2.284-.867-.896-2.254-.896-.925 0-1.648.405-.722.404-1.127 1.127t-.405 1.648l-1.243-.694q0-1.59.694-2.804a4.97 4.97 0 0 1 1.908-1.937q1.242-.722 2.775-.722 1.56 0 2.774.81a5.57 5.57 0 0 1 1.908 2.051q.694 1.243.694 2.602v8.7zm-9.509 0V21.486h3.179V35.36zM140.565 35.36V21.486h3.18V35.36zm1.59-16.418q-.81 0-1.359-.549-.52-.55-.52-1.358 0-.81.52-1.36.549-.548 1.359-.548.838 0 1.358.549t.521 1.359-.521 1.358q-.52.55-1.358.55M131.541 35.65q-2.08 0-3.758-.926a7.24 7.24 0 0 1-2.63-2.601q-.954-1.648-.954-3.7t.954-3.67a7.1 7.1 0 0 1 2.573-2.602q1.647-.954 3.642-.954 1.936 0 3.411.896a6.25 6.25 0 0 1 2.341 2.457q.867 1.56.867 3.555 0 .347-.058.723a7 7 0 0 1-.115.78h-11.389v-2.601h9.741l-1.185 1.04q-.058-1.271-.492-2.139a3.08 3.08 0 0 0-1.242-1.33q-.781-.462-1.937-.462-1.214 0-2.11.52a3.54 3.54 0 0 0-1.388 1.475q-.49.924-.491 2.225 0 1.301.52 2.284a3.77 3.77 0 0 0 1.474 1.532q.954.52 2.197.52 1.07 0 1.966-.376a4.1 4.1 0 0 0 1.561-1.098l2.023 2.052a6.5 6.5 0 0 1-2.457 1.792 7.8 7.8 0 0 1-3.064.607M116.677 35.36V15.705h3.179V35.36zm-3.324-10.984v-2.89h9.827v2.89zM103.609 35.65q-1.878 0-3.411-.954a7 7 0 0 1-2.399-2.573q-.867-1.647-.867-3.671 0-2.052.867-3.671.897-1.647 2.399-2.601 1.533-.983 3.411-.983 1.59 0 2.804.694a5.05 5.05 0 0 1 1.966 1.85q.722 1.185.722 2.688v3.989q0 1.503-.722 2.688a5.05 5.05 0 0 1-1.937 1.879q-1.243.664-2.833.664m.521-3.007q1.762 0 2.832-1.185 1.1-1.185 1.099-3.035 0-1.242-.492-2.197a3.53 3.53 0 0 0-1.387-1.474q-.867-.55-2.052-.55-1.156 0-2.053.55a3.8 3.8 0 0 0-1.387 1.474q-.492.954-.492 2.197t.492 2.197a4 4 0 0 0 1.387 1.503q.897.52 2.053.52m3.728 2.717v-3.728l.55-3.382-.55-3.353v-3.411h3.18V35.36zM89.38 35.36V15.705h3.18V35.36zm-3.324-10.984v-2.89h9.827v2.89zM79.388 35.65a8.5 8.5 0 0 1-2.226-.29 8.2 8.2 0 0 1-1.965-.867 6.7 6.7 0 0 1-1.561-1.387l2.023-2.024a4.9 4.9 0 0 0 1.648 1.272q.954.405 2.139.405 1.07 0 1.618-.318.55-.318.55-.925 0-.636-.52-.983-.521-.347-1.36-.578a49 49 0 0 0-1.734-.52 9.6 9.6 0 0 1-1.734-.694 3.9 3.9 0 0 1-1.33-1.243q-.52-.78-.52-2.023 0-1.33.607-2.284.636-.954 1.763-1.474 1.157-.52 2.746-.52 1.676 0 2.949.607 1.3.578 2.168 1.763l-2.024 2.023a4 4 0 0 0-1.387-1.127q-.78-.375-1.792-.376-.954 0-1.474.29-.52.289-.52.838 0 .578.52.896t1.33.549q.837.231 1.733.52a7 7 0 0 1 1.735.752 3.74 3.74 0 0 1 1.358 1.271q.52.78.52 2.053 0 2.023-1.416 3.208t-3.844 1.185M58.234 35.36V15.127h3.324V35.36zm2.283 0v-3.035h11.331v3.035zm0-8.873v-2.92h10.348v2.92zm0-8.325v-3.035h11.187v3.035z"/></svg>
